contributed-vectors/slither_io.svg

<?xml version="1.0" encoding="UTF-8" standalone="no"?>
<svg
   xmlns:dc="http://purl.org/dc/elements/1.1/"
   xmlns:cc="http://creativecommons.org/ns#"
   xmlns:rdf="http://www.w3.org/1999/02/22-rdf-syntax-ns#"
   xmlns:svg="http://www.w3.org/2000/svg"
   xmlns="http://www.w3.org/2000/svg"
   xmlns:sodipodi="http://sodipodi.sourceforge.net/DTD/sodipodi-0.dtd"
   xmlns:inkscape="http://www.inkscape.org/namespaces/inkscape"
   viewBox="0 0 192 192"
   version="1.1"
   id="svg16"
   sodipodi:docname="slither_io.svg"
   inkscape:version="0.92.4 (5da689c313, 2019-01-14)">
  <metadata
     id="metadata20">
    <rdf:RDF>
      <cc:Work
         rdf:about="">
        <dc:format>image/svg+xml</dc:format>
        <dc:type
           rdf:resource="http://purl.org/dc/dcmitype/StillImage" />
        <dc:title />
      </cc:Work>
    </rdf:RDF>
  </metadata>
  <sodipodi:namedview
     pagecolor="#ffffff"
     bordercolor="#666666"
     borderopacity="1"
     objecttolerance="10"
     gridtolerance="10"
     guidetolerance="10"
     inkscape:pageopacity="0"
     inkscape:pageshadow="2"
     inkscape:window-width="1920"
     inkscape:window-height="1017"
     id="namedview18"
     showgrid="true"
     inkscape:zoom="3.4766083"
     inkscape:cx="60.583978"
     inkscape:cy="69.614963"
     inkscape:window-x="-8"
     inkscape:window-y="-8"
     inkscape:window-maximized="1"
     inkscape:current-layer="svg16"
     inkscape:snap-global="false">
    <inkscape:grid
       type="xygrid"
       id="grid827"
       spacingx="4"
       spacingy="4" />
  </sodipodi:namedview>
  <defs
     id="defs4">
    <style
       id="style2">.a{fill:none;stroke:#b1b5bd;stroke-linecap:round;stroke-linejoin:round;isolation:isolate;opacity:0.63;}</style>
  </defs>
  <path
     style="fill:#f8c18c;stroke:none;stroke-width:0.82946813px;stroke-linecap:butt;stroke-linejoin:miter;stroke-opacity:1"
     d="m 25.187575,24.444088 c -0.391543,-1.809784 1.05708,-3.790028 3.665719,-4.09952 C 33.227526,19.825605 44.40185,12.364399 89.670853,7.8751968 104.07759,6.4465204 123.4699,15.753571 121.9958,37.596713 120.15429,64.884128 76.580996,86.717226 55.346421,125.39474 c 0,0 21.353216,3.4779 51.291429,-3.24544 12.09598,-2.71646 22.97836,-9.61022 35.35276,-10.07799 21.86638,-0.82658 35.07297,13.27489 37.82353,29.20908 2.45631,14.22957 -4.68451,30.78779 -22.99404,36.38323 C 118.95778,189.23445 26.779794,185.82934 11.857704,150.84594 2.1226966,128.02315 11.456223,107.02238 24.854328,92.598596 51.786784,63.604339 78.811175,49.584121 93.669811,32.81394 79.723406,26.563414 34.828969,26.070285 30.01966,26.493847 27.48335,26.717224 25.565012,26.188672 25.187575,24.444088 Z"
     id="path829"
     inkscape:connector-curvature="0"
     sodipodi:nodetypes="sssscsssssscss" />
  <path
     style="fill:#ff837d;stroke:none;stroke-width:0.82946813px;stroke-linecap:butt;stroke-linejoin:miter;stroke-opacity:1"
     d="M 83.303933,8.5626482 C 69.493296,10.127645 59.175536,11.955161 51.481891,13.704979 c -0.641418,1.669017 -1.340477,3.715848 -1.800066,5.785327 -0.448365,2.018931 -0.313708,5.155817 -0.164813,7.210746 5.818186,0.233423 12.283442,0.613424 18.570326,1.203979 0.554186,-1.834934 2.471254,-7.707752 5.421014,-11.147458 3.243216,-3.781909 6.817755,-6.422567 9.795581,-8.1949248 z M 105.29839,30.98879 c -4.73015,0.009 -11.62925,1.82565 -11.62925,1.82565 -4.885015,5.513457 -11.102172,10.736056 -18.181507,16.28487 2.040666,0.561323 11.692255,3.320541 17.682283,7.115609 6.727771,4.262473 10.583524,11.131378 11.232444,12.343236 9.57221,-10.234268 16.66482,-19.978593 17.55268,-30.517728 l -0.29281,-0.444521 c 0,0 -5.77953,-5.199912 -14.49656,-6.490656 -0.56082,-0.08304 -1.19154,-0.117754 -1.86728,-0.11646 z M 48.747385,78.69191 C 44.087814,78.67505 39.974156,79.541428 37.084528,80.369934 33.033909,84.143899 28.942943,88.196002 24.853656,92.598351 11.455552,107.02214 2.1229342,128.0225 11.857942,150.84529 c 1.60975,3.77391 4.122408,7.17898 7.365092,10.23874 0.801217,-3.96304 4.36744,-18.93677 13.962146,-27.14856 9.610157,-8.22501 22.160864,-8.54102 22.160864,-8.54102 C 61.487974,114.20729 69.500833,104.43459 77.83012,95.526275 75.386457,92.063882 69.676697,84.999047 61.511084,81.324587 57.19759,79.383544 52.781021,78.706505 48.747385,78.69191 Z m 71.399585,39.09648 c -4.4265,1.66935 -8.87893,3.32168 -13.50933,4.36155 -11.461966,2.57406 -21.647649,3.64624 -29.876364,3.99739 -1.263493,1.20909 -11.667108,11.54627 -13.25011,25.89374 -1.364603,12.36799 3.601958,23.43787 6.637057,28.88235 18.965389,2.93603 39.559237,3.35235 57.319027,1.84041 -5.36196,-4.19924 -18.16589,-15.97769 -19.13514,-33.45549 -0.9762,-17.60292 7.99959,-27.94543 11.81486,-31.51995 z"
     id="path831"
     inkscape:connector-curvature="0" />
  <rect
     style="opacity:1;vector-effect:none;fill:#ffffff;fill-opacity:1;fill-rule:evenodd;stroke:none;stroke-width:6.73720837;stroke-linecap:round;stroke-linejoin:round;stroke-miterlimit:4;stroke-dasharray:none;paint-order:stroke fill markers"
     id="rect856"
     width="27.659496"
     height="28.355013"
     x="127.24444"
     y="136.24139"
     ry="14.177506" />
  <rect
     style="opacity:1;vector-effect:none;fill:#56595b;fill-opacity:1;fill-rule:evenodd;stroke:none;stroke-width:6.63574505;stroke-linecap:round;stroke-linejoin:round;stroke-miterlimit:4;stroke-dasharray:none;paint-order:stroke fill markers"
     id="rect858"
     width="19.661568"
     height="20.155972"
     x="131.24341"
     y="140.68254"
     ry="10.077986" />
  <rect
     style="opacity:1;vector-effect:none;fill:#ffffff;fill-opacity:1;fill-rule:evenodd;stroke:none;stroke-width:6.63574505;stroke-linecap:round;stroke-linejoin:round;stroke-miterlimit:4;stroke-dasharray:none;paint-order:stroke fill markers"
     id="rect860"
     width="8.8310432"
     height="9.0531054"
     x="133.49283"
     y="143.75719"
     ry="4.5265527" />
  <rect
     style="opacity:1;vector-effect:none;fill:#ffffff;fill-opacity:1;fill-rule:evenodd;stroke:none;stroke-width:6.35164595;stroke-linecap:round;stroke-linejoin:round;stroke-miterlimit:4;stroke-dasharray:none;paint-order:stroke fill markers"
     id="rect856-9"
     width="26.076574"
     height="26.732286"
     x="157.73653"
     y="124.45528"
     ry="13.366144" />
  <rect
     style="opacity:1;vector-effect:none;fill:#56595b;fill-opacity:1;fill-rule:evenodd;stroke:none;stroke-width:6.25598907;stroke-linecap:round;stroke-linejoin:round;stroke-miterlimit:4;stroke-dasharray:none;paint-order:stroke fill markers"
     id="rect858-3"
     width="18.536358"
     height="19.002466"
     x="161.50665"
     y="128.64226"
     ry="9.5012331" />
  <rect
     style="opacity:1;vector-effect:none;fill:#ffffff;fill-opacity:1;fill-rule:evenodd;stroke:none;stroke-width:6.25598907;stroke-linecap:round;stroke-linejoin:round;stroke-miterlimit:4;stroke-dasharray:none;paint-order:stroke fill markers"
     id="rect860-6"
     width="8.3256512"
     height="8.5350056"
     x="163.62733"
     y="131.54094"
     ry="4.2675033" />
  <path
     style="opacity:0.5;fill:#ba6561;stroke:#ba6561;stroke-width:6.63574505;stroke-linecap:round;stroke-linejoin:round;stroke-miterlimit:4;stroke-dasharray:none;stroke-opacity:1"
     d="m 159.48608,157.08061 4.49884,-1.79353 -1.74955,3.8433 z"
     id="path901"
     inkscape:connector-curvature="0"
     sodipodi:nodetypes="cccc" />
</svg>

<svg xmlns="http://www.w3.org/2000/svg" id="svg16" version="1.1" viewBox="0 0 192 192"><defs id="defs4"><style id="style2">.a{fill:none;stroke:#b1b5bd;stroke-linecap:round;stroke-linejoin:round;isolation:isolate;opacity:.63}</style></defs><path id="path829" d="M25.188 24.444c-.392-1.81 1.057-3.79 3.665-4.1 4.375-.518 15.549-7.98 60.818-12.469 14.407-1.428 33.799 7.879 32.325 29.722-1.842 27.287-45.415 49.12-66.65 87.798 0 0 21.354 3.478 51.292-3.246 12.096-2.716 22.978-9.61 35.353-10.078 21.866-.826 35.073 13.275 37.823 29.21 2.456 14.229-4.684 30.787-22.994 36.383-37.862 11.57-130.04 8.165-144.962-26.818-9.735-22.823-.402-43.824 12.996-58.247C51.787 63.604 78.811 49.584 93.67 32.814c-13.947-6.25-58.841-6.744-63.65-6.32-2.537.223-4.455-.305-4.832-2.05Z" style="fill:#f8c18c;stroke:none;stroke-width:.82946813px;stroke-linecap:butt;stroke-linejoin:miter;stroke-opacity:1"/><path id="path831" d="M83.304 8.563c-13.81 1.565-24.128 3.392-31.822 5.142-.642 1.669-1.34 3.716-1.8 5.785-.449 2.02-.314 5.156-.165 7.211 5.818.233 12.283.613 18.57 1.204.555-1.835 2.472-7.708 5.421-11.147 3.244-3.782 6.818-6.423 9.796-8.195zm21.994 22.426c-4.73.009-11.629 1.825-11.629 1.825C88.784 38.328 82.567 43.55 75.488 49.1c2.04.562 11.692 3.32 17.682 7.116 6.728 4.262 10.583 11.131 11.232 12.343 9.573-10.234 16.665-19.978 17.553-30.518l-.293-.444s-5.78-5.2-14.496-6.49a12.769 12.769 0 0 0-1.868-.117zm-56.55 47.703c-4.66-.017-8.774.85-11.663 1.678a239.067 239.067 0 0 0-12.231 12.228c-13.398 14.424-22.731 35.425-12.996 58.247 1.61 3.774 4.122 7.18 7.365 10.239.801-3.963 4.367-18.937 13.962-27.149 9.61-8.225 22.161-8.54 22.161-8.54 6.142-11.188 14.155-20.96 22.484-29.869C75.386 92.064 69.677 85 61.511 81.325c-4.313-1.941-8.73-2.618-12.764-2.633Zm71.399 39.096c-4.427 1.67-8.879 3.322-13.51 4.362-11.461 2.574-21.647 3.646-29.876 3.997-1.263 1.21-11.667 11.547-13.25 25.894-1.364 12.368 3.602 23.438 6.637 28.882 18.966 2.936 39.56 3.353 57.32 1.84-5.363-4.198-18.167-15.977-19.136-33.455-.976-17.603 8-27.945 11.815-31.52z" style="fill:#ff837d;stroke:none;stroke-width:.82946813px;stroke-linecap:butt;stroke-linejoin:miter;stroke-opacity:1"/><rect id="rect856" width="27.659" height="28.355" x="127.244" y="136.241" ry="14.178" style="opacity:1;vector-effect:none;fill:#fff;fill-opacity:1;fill-rule:evenodd;stroke:none;stroke-width:6.73720837;stroke-linecap:round;stroke-linejoin:round;stroke-miterlimit:4;stroke-dasharray:none;paint-order:stroke fill markers"/><rect id="rect858" width="19.662" height="20.156" x="131.243" y="140.683" ry="10.078" style="opacity:1;vector-effect:none;fill:#56595b;fill-opacity:1;fill-rule:evenodd;stroke:none;stroke-width:6.63574505;stroke-linecap:round;stroke-linejoin:round;stroke-miterlimit:4;stroke-dasharray:none;paint-order:stroke fill markers"/><rect id="rect860" width="8.831" height="9.053" x="133.493" y="143.757" ry="4.527" style="opacity:1;vector-effect:none;fill:#fff;fill-opacity:1;fill-rule:evenodd;stroke:none;stroke-width:6.63574505;stroke-linecap:round;stroke-linejoin:round;stroke-miterlimit:4;stroke-dasharray:none;paint-order:stroke fill markers"/><rect id="rect856-9" width="26.077" height="26.732" x="157.737" y="124.455" ry="13.366" style="opacity:1;vector-effect:none;fill:#fff;fill-opacity:1;fill-rule:evenodd;stroke:none;stroke-width:6.35164595;stroke-linecap:round;stroke-linejoin:round;stroke-miterlimit:4;stroke-dasharray:none;paint-order:stroke fill markers"/><rect id="rect858-3" width="18.536" height="19.002" x="161.507" y="128.642" ry="9.501" style="opacity:1;vector-effect:none;fill:#56595b;fill-opacity:1;fill-rule:evenodd;stroke:none;stroke-width:6.25598907;stroke-linecap:round;stroke-linejoin:round;stroke-miterlimit:4;stroke-dasharray:none;paint-order:stroke fill markers"/><rect id="rect860-6" width="8.326" height="8.535" x="163.627" y="131.541" ry="4.268" style="opacity:1;vector-effect:none;fill:#fff;fill-opacity:1;fill-rule:evenodd;stroke:none;stroke-width:6.25598907;stroke-linecap:round;stroke-linejoin:round;stroke-miterlimit:4;stroke-dasharray:none;paint-order:stroke fill markers"/><path id="path901" d="m159.486 157.08 4.499-1.793-1.75 3.843z" style="opacity:.5;fill:#ba6561;stroke:#ba6561;stroke-width:6.63574505;stroke-linecap:round;stroke-linejoin:round;stroke-miterlimit:4;stroke-dasharray:none;stroke-opacity:1"/></svg>
